public/fonts/icons/rss-add.svg

<?xml version="1.0" encoding="utf-8"?>

<!DOCTYPE svg PUBLIC "-//W3C//DTD SVG 1.1//EN" "http://www.w3.org/Graphics/SVG/1.1/DTD/svg11.dtd">
<svg version="1.1" xmlns="http://www.w3.org/2000/svg" xmlns:xlink="http://www.w3.org/1999/xlink" width="32" height="32" viewBox="0 0 32 32">
<g>
</g>
	<path d="M8 8c8.837 0 16 7.164 16 16 0 0.68-0.056 1.344-0.138 2h-4.042c0.11-0.652 0.18-1.316 0.18-2 0-6.627-5.373-12-12-12-0.683 0-1.349 0.070-2 0.18v-4.041c0.656-0.082 1.321-0.139 2-0.139zM8 0c13.255 0 24 10.745 24 24 0 0.676-0.046 1.339-0.101 2h-4c0.066-0.658 0.101-1.324 0.101-2 0-11.045-8.954-20-20-20-0.675 0-1.342 0.035-2 0.101v-4c0.661-0.055 1.325-0.101 2-0.101zM10 16v6h6v4h-6v6h-4v-6l-6-0.080v-3.92h6v-6h4z" fill="#000000"></path>
</svg>

<svg xmlns="http://www.w3.org/2000/svg" width="32" height="32" viewBox="0 0 32 32"><title>RSS Add</title><path d="M8 8c8.837 0 16 7.164 16 16 0 .68-.056 1.344-.138 2H19.82c.11-.652.18-1.316.18-2 0-6.627-5.373-12-12-12-.683 0-1.35.07-2 .18V8.14A16.08 16.08 0 0 1 8 8zm0-8c13.255 0 24 10.745 24 24 0 .676-.046 1.34-.1 2h-4c.065-.658.1-1.324.1-2C28 12.955 19.046 4 8 4c-.675 0-1.342.035-2 .1v-4C6.66.047 7.325 0 8 0zm2 16v6h6v4h-6v6H6v-6l-6-.08V22h6v-6h4z"/></svg>
